X: 26473
T: Mia's March
R: jig
M: 6/8
K: Bminor
B2 f fef|g2 f fef|B2 f fef|efg fed|
B2 f fef|g2 f fef|e2 c cBc|Fcd edc||
B2 f fef|g2 f fef|B2 f fef|gfe efg|
fed edc|dcB Bcd|cee efg|fed cde||
a2 f fef|d2 f fef|a2 f fef|efg fed|
a2 f fef|d2 f fef|e2 c cBc|Fcd edc||
a2 f fef|d2 f fef|a2 f fef|agf agf|
fed edc|dcB Bcd|cee efg|fed cde||B6||

